X:1549
T:Mountain Rose, The
R:reel
N:"collected from Tobin"
B:"O'Neill's Dance Music of Ireland, 1549"
T: ros an slei.b.
Z:transcribed by John B. Walsh, walsh@math.ubc.ca 8/23/96
M:C|
L:1/8
K:A
(gf)|eA ((3.A.A.A)e2 (dc)|BAGA BcdB|eA ((3.A.A.A) (ec)dc|BAGB Agfg|
eA ((3.A.A.A) ((3efg) (dc)|BAGA Bcdf|eaag ((3efg) dc|BAGB A2||
z2|BGBd gfga|bgaf gedf|eaab agab|c'2 (ba) gedc|
BGBd gfga|bgaf gedf|eaag ((3efg) (dc)|BAGB A2||


